X:1
T:The Tailor and the Mouse
M:4/4
L:1/4
K:Bb
 d|B/2-B/2 G G G|F/2-F/2 D D2| D D/2D/2 D d| B G2| d| BG/2-G/2 G G|\
 F D D2| D D/2D/2 D d| B G3| B B/2B/2 B G| B G B G| A/2c/2 c2 c| A3/2 c/2- c2|\
 B G/2G/2 G G| F/2=E/2 D D2| D D/2D/2 D d| B2 G2-| G3||
